docs/public/icons/java.svg

<svg xmlns="http://www.w3.org/2000/svg" x="0px" y="0px" width="100" height="100" viewBox="0 0 48 48">
<path fill="#F44336" d="M23.65,24.898c-0.998-1.609-1.722-2.943-2.725-5.455C19.229,15.2,31.24,11.366,26.37,3.999c2.111,5.089-7.577,8.235-8.477,12.473C17.07,20.37,23.645,24.898,23.65,24.898z"></path><path fill="#F44336" d="M23.878,17.27c-0.192,2.516,2.229,3.857,2.299,5.695c0.056,1.496-1.447,2.743-1.447,2.743s2.728-0.536,3.579-2.818c0.945-2.534-1.834-4.269-1.548-6.298c0.267-1.938,6.031-5.543,6.031-5.543S24.311,11.611,23.878,17.27z"></path><g><path fill="#1565C0" d="M32.084 25.055c1.754-.394 3.233.723 3.233 2.01 0 2.901-4.021 5.643-4.021 5.643s6.225-.742 6.225-5.505C37.521 24.053 34.464 23.266 32.084 25.055zM29.129 27.395c0 0 1.941-1.383 2.458-1.902-4.763 1.011-15.638 1.147-15.638.269 0-.809 3.507-1.638 3.507-1.638s-7.773-.112-7.773 2.181C11.683 28.695 21.858 28.866 29.129 27.395z"></path><path fill="#1565C0" d="M27.935,29.571c-4.509,1.499-12.814,1.02-10.354-0.993c-1.198,0-2.974,0.963-2.974,1.889c0,1.857,8.982,3.291,15.63,0.572L27.935,29.571z"></path><path fill="#1565C0" d="M18.686,32.739c-1.636,0-2.695,1.054-2.695,1.822c0,2.391,9.76,2.632,13.627,0.205l-2.458-1.632C24.271,34.404,17.014,34.579,18.686,32.739z"></path><path fill="#1565C0" d="M36.281,36.632c0-0.936-1.055-1.377-1.433-1.588c2.228,5.373-22.317,4.956-22.317,1.784c0-0.721,1.807-1.427,3.477-1.093l-1.42-0.839C11.26,34.374,9,35.837,9,37.017C9,42.52,36.281,42.255,36.281,36.632z"></path><path fill="#1565C0" d="M39,38.604c-4.146,4.095-14.659,5.587-25.231,3.057C24.341,46.164,38.95,43.628,39,38.604z"></path></g>
</svg>

<svg xmlns="http://www.w3.org/2000/svg" viewBox="0 0 48 48"><path fill="#F44336" d="M23.65 24.9c-1-1.61-1.72-2.94-2.73-5.46-1.7-4.24 10.32-8.07 5.45-15.44 2.11 5.09-7.58 8.23-8.48 12.47-.82 3.9 5.75 8.43 5.76 8.43z"/><path fill="#F44336" d="M23.88 17.27c-.2 2.52 2.23 3.86 2.3 5.7.05 1.5-1.45 2.74-1.45 2.74s2.73-.54 3.58-2.82c.94-2.53-1.83-4.27-1.55-6.3.27-1.94 6.03-5.54 6.03-5.54s-8.48.56-8.91 6.22z"/><g fill="#1565C0"><path d="M32.08 25.05c1.76-.39 3.24.73 3.24 2.01 0 2.9-4.02 5.65-4.02 5.65s6.22-.74 6.22-5.5c0-3.16-3.06-3.94-5.44-2.16zm-2.95 2.34s1.94-1.38 2.46-1.9c-4.77 1.01-15.64 1.15-15.64.27 0-.8 3.5-1.64 3.5-1.64s-7.77-.1-7.77 2.18c0 2.4 10.18 2.57 17.45 1.1z"/><path d="M27.93 29.57c-4.5 1.5-12.8 1.02-10.35-1-1.2 0-2.97.97-2.97 1.9 0 1.85 8.98 3.29 15.63.57l-2.3-1.47z"/><path d="M18.69 32.74c-1.64 0-2.7 1.05-2.7 1.82 0 2.4 9.76 2.63 13.63.2l-2.46-1.63c-2.89 1.27-10.15 1.45-8.47-.4z"/><path d="M36.28 36.63c0-.93-1.05-1.38-1.43-1.59 2.23 5.38-22.32 4.96-22.32 1.79 0-.72 1.8-1.43 3.48-1.1l-1.42-.83c-3.33-.53-5.59.94-5.59 2.12 0 5.5 27.28 5.24 27.28-.39z"/><path d="M39 38.6c-4.15 4.1-14.66 5.6-25.23 3.06 10.57 4.5 25.18 1.97 25.23-3.06z"/></g></svg>
